icons/character-recognition-fill.svg

<svg viewBox="0 0 24 24" fill="currentColor" xmlns="http://www.w3.org/2000/svg">
    <path d="M20.998 3V21H2.99805V3H20.998ZM12.997 6H10.997L6.59805 17H8.75205L9.95105 14H14.041L15.242 17H17.397L12.997 6ZM11.997 8.88517L13.242 12H10.75L11.997 8.88517Z"/>
</svg>

<svg xmlns="http://www.w3.org/2000/svg" viewBox="0 0 24 24">
    <g>
        <path fill="none" d="M0 0h24v24H0z"/>
        <path d="M21 3v18H3V3h18zm-8.001 3h-2L6.6 17h2.154l1.199-3h4.09l1.201 3h2.155l-4.4-11zm-1 2.885L13.244 12h-2.492l1.247-3.115z"/>
    </g>
</svg>
